X:1
T:Farewell, My Friends, Since We Must Part
T:Farewell, My Friends, Since We Must Part
T:George Nathaniel Fenn
T:George Nathaniel Fenn, 1904
T:Public Domain Courtesy of the Cyber Hymnal™
T:Public Domain Courtesy of the Cyber Hymnal™
T:Public Domain Courtesy of the Cyber Hymnal™
C:George Nathaniel Fenn
Z:Public Domain
Z:Courtesy of the Cyber Hymnal™
%%score ( 1 2 ) ( 3 4 )
L:1/8
Q:1/4=105
M:12/8
K:Ab
V:1 treble 
V:2 treble 
V:3 bass 
V:4 bass 
V:1
 E C2 E | (z2 A3) [CA]2 cA x3 | (z2 c3) [Fc]2 c B2 A x | z2 F3 F2 [=DB] (A G)[DF] x | %4
w: 1.~Fare- well, my|* friends, since we|* must part, The *|* sep- a- ra- * tion|
w: 2.~But peace, my|* soul! that pain-|* ful word Shall *|* cease to pierce * as|
w: 3.~Till then, let’s|* hope and trust|* and pray, And *|* wait, and watch * for|
 (z2 E3) [DE]2 E A2 B x | z2 c3 [Ec]2 [Ee] [Ed]2 [Ec] x | F3- F3- [DF]2 B (AG)F | %7
w: * grieves my heart; The|* * Mas- ter do-|* * eth all things * well,|
w: * with a sword, When|* * an- gels come|* * the news to * tell,|
w: * that sweet day, When|* * we’ll go home,|* * with Christ to * dwell,|
 z2 E3- E2 [=DA] !fermata![EG]2 !fermata![_DB] x | [CA-]3 [DA-]3 [CA]2 ||"^Refrain" c e2 f | %10
w: * * And yet I||grieve * to|
w: * * That we may||bid * all|
w: * * Where friends no||more * shall|
 (z2 e3-) [Ge]2 c c2 B x | (z2 A3) [=EA]2 A A2 F x | z2 A3- [EA]2 [Ec] (c B)[=DA] x | %13
w: * say fare- well. *|||
w: * grief fare- well. This|* * is my prayer|* to God most * high,|
w: * say fare- well. *|||
 B3- B3- [GB]2 d c2 B | z2 A3- [EA]2 E (A B)[_Gc] x | d3- d3- [Fd]2 B c2 f | %16
w: |||
w: That * we may ga- ther|* by and by, * A-|round * the throne where an-|
w: |||
 z2 e3 [Ee]2 [EA] !fermata![Ec]2 !fermata![DB] x | [CA-]3 [DA-]3 [CA]3 | [DE]6 [CE]3 z3 | %19
w: |||
w: * gels dwell; But for||a while|
w: |||
 [A,D]6 !fermata![A,C]3 |] %20
w: |
w: fare- well,|
w: |
V:2
 x4 | (A3- C C2 C cB) x3 | c3- E =E2 E x5 | (F3 F =D2 F F2) D2 x | E3- B, B,2 C x5 | %5
 c3- C E2 E x5 | D2 D D2 D x6 | E3 C C2 D x5 | x8 || x4 | (e3 A A2 A) x5 | A3- F F2 F x5 | %12
 (A3 F F2 F x C2) x2 | E2 F G2 A x6 | (A3 E E2 EE) E2 x2 | F2 F F2 F x6 | e3- A A2 E x5 | x9 | %18
 x12 | x9 |] %20
V:3
 z4 | z2 [A,,E,] ([A,,E,]2 [A,,E,] [A,,E,]2) z4 | z2 ([A,,A,] [C,G,]2 [C,B,] [F,A,]2) z4 | %3
 z2 ([D,A,] [D,A,]2 [C,A,] [B,,A,]2 [B,,A,]) [B,,B,]2 [B,,A,] | %4
 ([E,G,]2 [E,G,] [E,G,]2 [E,A,] [E,B,]2) z4 | %5
 z2 ([A,,A,] [A,,A,]2 [A,,A,] [A,,A,]2) [C,A,] [B,,G,]2 [A,,A,] | (A,2 A, A,2 A, [D,A,]2) z4 | %7
 z2 ([A,,A,] [A,,A,]2 [B,,G,] [C,A,]2) [B,,B,] !fermata![E,B,]2 !fermata!E, | %8
 ([A,,-E,]3 [A,,-F,]3 [A,,E,]2) || z4 | z2 [A,C] [A,C]2 [A,C] [E,D]2 z4 | %11
 z2 [F,C] [F,C]2 [F,C] [C,A,]2 z4 | z2 [D,A,] [D,D]2 [D,D] [A,,C]2 [A,,A,] ([C,A,][=E,G,])F, | %13
 ([E,G,]2 [E,A,] [B,,B,]2 [B,,C] [E,B,]2) z4 | %14
 z2 ([A,,C] [A,,C]2 [A,,C] [C,C]2) [D,B,] [C,A,][B,,G,][A,,A,] | (A,2 A, A,2 A, [D,A,]2) z4 | %16
 z2 ([C,A,] [C,A,]2 [E,D] [A,C]2) [C,A,] !fermata![E,A,]2 !fermata!E, | %17
 ([A,,E,]3 [A,,E,]3 [A,,E,]3) | [E,G,]6 [A,,A,]3 z3 | [D,F,]6 !fermata![A,,E,]3 |] %20
V:4
 x4 | x12 | x12 | x12 | x12 | x12 | D,3- D,3- x6 | x11 E, | x8 || x4 | x12 | x12 | x11 F, | x12 | %14
 x12 | D,3- D,3- x6 | x11 E, | x9 | x12 | x9 |] %20

